X:86
T:Walker Street Reel
S:Bernie Waugh
R:Reel
M:4/4
L:1/8
K:G
|:(3DEF|\
"G"G2BG dGBG|"Am"ABcd "D"~cBAG|"G"Bdgd "Em"egdB|"Am"~cBAG "D"FA (3DEF|
"G"G2BG dGBG|"Am"ABcd ~cBAG|"Em"Bdgd "C"egdB|"D"(3cBA FA "G"G2:|
|:ef|\
"G"~g2dg Bgdg|"C"gabg "D"~agef|"G"~g2dg "Em"BgdB|"Am"~cBAG "D"FAef|
"G"~g2dg Bgdg|"Em"gabg ~agef|"C"gfga ~gfed|"D"egfa "G"g2:|

